X:269
T:Tom Bombadil
C:Chris Thile
N:
L:1/8
Q:1/4=275
M:8/4
K:G
z8 z6 GG | 
M:7/4
G2 FG EF GA BG Dc GD | A2 GA FG Ad eA Gd AF | G2 FG EF GA BG Dc GD | 
M:8/4
A2 GA Fd eA FD G2 G,2 (3GGG | 
M:7/4
G2 FG EF GA BG Dc GD | A2 GA FG Ad eA Gd AF | G2 FG EF GA BG Dc GD | 
M:8/4
A2 GA Fd eA FD G2 G,2 DE | 
M:4/4
GD GA Bc d=f | e=f de cd Bc | AB cd ef gb | ab ga fe de | eB ef ^gf eB | 
M:7/4
ce gc' bg ^ac' d'a =f^d =d^A | 
M:4/4
^ca ec dA FE/F/ | 
M:7/4
G2 FG EF GA BG Dc GD | A2 GA FG Ad eA Gd AF | G2 FG EF GA BG Dc GD | 
M:8/4
A2 GA Fd eA FD GE DC B,A, | 
M:4/4
G,2 DG GD G,A | G,A DG, AD G,B | G,B DG, BD G,c | G,B G,D AG FG | G,A, B,D ED B,F | 
B,F DB, FB, DG | B,G DB, GB, DG | cc Bc AG FG | G,2 DG GD G,A | G,A DG, AD G,B | 
G,B DG, BD G,c | G,B G,D AG FG | G,A, B,D ED B,F | B,F DB, FB, DG | B,G DB, GB, DG | 
cc Bc AG FG | 
M:7/4
G2 FG EF GA BG Dc GD | A2 GA FG Ad eA Gd AF | G2 FG EF GA BG Dc GD | 
M:8/4
A2 GA Fd eA FD G2 G,2 (3GGG | 
M:7/4
G2 FG EF GA BG Dc GD | A2 GA FG Ad eA Gd AF | G2 FG EF GA BG Dc GD | 
M:8/4
A2 GA Fd eA FD G2 G,2 (3DEF | 
M:4/4
GF GA BA GF | Ee ^df e=d cB | A^G AB cB A=G | Ff eg fe d^d | e^d ef gf e=d | 
M:7/4
ca g=f (3edc ^A2 Ac dc AG | 
M:4/4
Aa (3e^cA (3dAF (3DFA | 
M:7/4
G2 FG EF GA BG Dc GD | A2 GA FG Ad eA Gd AF | G2 FG EF GA BG Dc GD | 
M:8/4
A2 GA Fd eA FD G2 G,2 (3GGG | 
M:7/4
G2 FG EF GA BG Dc GD | A2 GA FG Ad eA Gd AF | G2 FG EF GA BG Dc GD | 
M:8/4
A2 GA Fd eA FE D6 | z8 z8 | 
M:5/4
z8 GG | 
M:4/4
[G2G,2] FG EF GA | BD G,[d=F] G,[cE] G,G, | 
M:5/4
eF dA FE DF Ad | 
M:4/4
eG G,[gB] [eA]f G,c | 
M:5/4
aD gd BA GD B,A, | 
M:4/4
G,D G[d=F] [AD][cE] G,G | 
M:5/4
eF dA FE DF Ad | 
M:4/4
eG G,[gB] [eA]f G,c | 
M:5/4
aD gd BA GD B,A, | 
M:4/4
[G2G,2] FG EF GA | BD G,[d=F] G,[cE] G,G, | 
M:5/4
eF dA FE DF Ad | 
M:4/4
eG G,[gB] [eA]f G,c | 
M:5/4
aD gd BA GD B,A, | 
M:4/4
G,D G[d=F] [AD][cE] G,G | 
M:5/4
eF dA FE DF Ad | 
M:4/4
eG G,[gB] [eA]f G,c | 
M:5/4
aD gd BA GD B,A, | 
M:4/4
G,2 DG GD G,A | G,A DG, AD G,B | G,B DG, BD G,c | G,B G,D AG FG | G,A, B,D ED B,F | 
B,F DB, FB, DG | B,G DB, GB, DG | cc Bc AG FG | G,2 DG GD G,A | G,A DG, AD G,B | 
G,B DG, BD G,c | G,B G,D AG FG | G,A, B,D ED B,F | B,F DB, FB, DG | B,G DB, GB, DG | 
cc Bc AG FG | G2 DG G4 | z8 | z8 | 
 

